X: 8203
T: Coolin, The
R: strathspey
M: 4/4
K: Dmajor
(AB/2c/2)|d2 A2 (de)|{d}c2 (BA) (Bc)|d3 f (ed)|(d2 c2) (BA)|
B3 d (cB)|B2 A2 d2|D2 (FD) (C3/2D/2)|D4 (DF)|
{F}A2 A2 B2|(B2 AF) D (F/2A/2)|d2 d2 (f e/2d/2)|d2 c2 (BA)|
{A}B2 B2 (BA/2F/2)|F2 A2 d2|(cB) (AF) (E3/2D/2)|D4 z2:|

